X:41
T:O\'iche Nollaig
T:Christmas Eve
R:slide
H:Also as a reel, #719
Z:id:hn-slide-41
M:6/8
K:D
a2g|:f2A d2f|e2d B2g|f2A d2f|gfg a2g|
f2A d2f|e2d B2c|d2B BAG|1 F2A D2g:|2 F2A D3||
~a3 a2f|d2e f2a|g2f e2d|B3 A3|
[1 ~a3 a2f|d2e f2d|e2d c2e|a3 f2g:|
[2 ~a3 a2f|d2e f2d|e2d c2e|a3||

